assets/images/lumious.svg

<svg width="97" height="20" viewBox="0 0 97 20" fill="none" xmlns="http://www.w3.org/2000/svg">
<path d="M27.5752 14.7538V5.25H30.654V12.1205H37.3127V14.7569L27.5752 14.7538Z" fill="#383838"/>
<path d="M49.5561 5.25V10.6029C49.5561 11.7213 49.3414 12.6112 48.912 13.2725C48.4827 13.9338 47.8681 14.4021 47.0681 14.6776C46.2686 14.9526 45.2691 15.0901 44.0698 15.0901C42.8705 15.0901 41.8711 14.9526 41.0716 14.6776C40.272 14.4025 39.6574 13.9365 39.2276 13.2793C38.7979 12.6222 38.583 11.7301 38.583 10.6029V5.25H41.6619V10.5098C41.6619 11.1927 41.8688 11.6853 42.2827 11.9874C42.6967 12.2895 43.2932 12.4405 44.0723 12.4405C44.8444 12.4405 45.4393 12.2895 45.8569 11.9874C46.2746 11.6853 46.4828 11.1927 46.4816 10.5098V5.25H49.5561Z" fill="#383838"/>
<path d="M64.7238 14.7538H61.6449V8.28272H61.5731L59.137 14.7538H56.8152L54.3448 8.20272H54.2611V14.7538H51.3496V5.25H56.075L57.9489 10.5891H58.032L59.8697 5.25H64.7269L64.7238 14.7538Z" fill="#383838"/>
<path d="M66.5132 14.7538V5.25H69.592V14.7569L66.5132 14.7538Z" fill="#383838"/>
<path d="M81.9373 6.16709C82.9755 7.00048 83.4946 8.2787 83.4946 10.0017C83.4946 11.7248 82.9755 13.003 81.9373 13.8364C80.8992 14.6698 79.3584 15.0865 77.315 15.0865C75.2778 15.0865 73.7404 14.6698 72.7027 13.8364C71.6649 13.003 71.1452 11.7248 71.1436 10.0017C71.1436 8.27995 71.6626 7.00173 72.7008 6.16709C73.7389 5.33244 75.2764 4.91574 77.3131 4.91699C79.3578 4.91574 80.8992 5.33244 81.9373 6.16709ZM79.4132 11.8594C79.8821 11.4285 80.1167 10.8093 80.1171 10.0017C80.1175 9.19418 79.8829 8.57497 79.4132 8.14411C78.9443 7.71366 78.2442 7.49843 77.3131 7.49843C76.382 7.49843 75.6839 7.71366 75.2187 8.14411C74.7531 8.57497 74.5204 9.19418 74.5204 10.0017C74.5204 10.8093 74.7531 11.4285 75.2187 11.8594C75.6843 12.2898 76.3824 12.5051 77.3131 12.5051C78.2438 12.5051 78.9438 12.2898 79.4132 11.8594Z" fill="#383838"/>
<path d="M91.6632 7.29854C91.3247 7.13186 90.8372 7.04852 90.2009 7.04852C89.5488 7.04852 89.0835 7.11728 88.8049 7.25479C88.5263 7.3923 88.387 7.59418 88.387 7.86045C88.3809 7.95378 88.4011 8.04695 88.4452 8.12937C88.4894 8.2118 88.5558 8.28017 88.6368 8.32674C88.8034 8.42424 89.0897 8.49529 89.4957 8.53988L92.9681 8.85928C94.0187 8.95678 94.8085 9.23639 95.3373 9.69809C95.8662 10.1598 96.1306 10.8567 96.1306 11.7889C96.1306 12.6677 95.9178 13.3467 95.4923 13.8259C95.0667 14.3051 94.442 14.6357 93.6183 14.8178C92.7942 14.9999 91.7063 15.091 90.3546 15.091C89.057 15.091 88.0068 14.9933 87.2039 14.7978C86.401 14.6024 85.7824 14.2518 85.3481 13.7459C84.9146 13.2404 84.682 12.5258 84.6504 11.602H88.2346C88.322 12.1083 88.5427 12.4568 88.8967 12.6477C89.2507 12.8385 89.7778 12.934 90.4783 12.934C91.1941 12.934 91.7092 12.8606 92.0236 12.7139C92.338 12.5673 92.495 12.3381 92.4946 12.0264C92.4946 11.7689 92.4032 11.5814 92.2204 11.4638C92.0376 11.3463 91.7632 11.2709 91.3971 11.2376L88.0553 10.8782C86.9972 10.7632 86.2018 10.4923 85.6692 10.0656C85.1366 9.63892 84.8701 8.9597 84.8696 8.02797C84.8696 7.23624 85.0824 6.61265 85.508 6.1572C85.9336 5.70175 86.5422 5.37986 87.3338 5.19151C88.1251 5.00525 89.1174 4.91211 90.3109 4.91211C91.4964 4.91211 92.483 5.00754 93.2704 5.19839C94.0579 5.38923 94.6725 5.71988 95.1144 6.19033C95.5562 6.66078 95.7888 7.30437 95.8121 8.1211H92.2679C92.2437 7.9444 92.1757 7.77656 92.0701 7.63289C91.9644 7.48922 91.8246 7.37428 91.6632 7.29854Z" fill="#383838"/>
<path fill-rule="evenodd" clip-rule="evenodd" d="M12.4574 17.8755C12.0804 17.9239 11.696 17.9488 11.3058 17.9488C10.9128 17.9488 10.5256 17.9235 10.1459 17.8744C9.96617 18.8915 9.446 19.6441 8.70557 19.8999C8.08914 20.114 7.4998 19.9215 7.43512 19.9003L7.43379 19.8999C6.0457 19.4218 5.65089 17.3638 5.54845 15.8558C4.82457 15.2487 4.1979 14.5294 3.69518 13.7246C3.65563 13.8955 3.62448 14.0513 3.59599 14.1938C3.4788 14.78 3.40648 15.1417 2.97887 15.4089C2.34111 15.8077 1.53783 15.6077 1.49535 15.5965C0.673324 15.3789 0.312908 14.6545 0.223585 14.4714C-0.650911 12.7075 1.30921 10.5517 1.49535 10.3511C1.78003 10.0457 2.07393 9.79583 2.35796 9.58898C2.34424 9.3859 2.33726 9.18097 2.33726 8.97441C2.33726 4.01798 6.35263 0 11.3058 0C16.259 0 20.2744 4.01798 20.2744 8.97441C20.2744 9.1847 20.2672 9.39329 20.253 9.59996C20.5318 9.80459 20.8197 10.051 21.099 10.3511C21.2939 10.5517 23.2547 12.7075 22.3789 14.4714C22.2902 14.6533 21.9298 15.3777 21.1078 15.5965C21.0653 15.6077 20.262 15.8077 19.6243 15.4089C19.199 15.1423 19.1267 14.7815 19.0097 14.1974C18.9814 14.0562 18.9505 13.902 18.9113 13.7328C18.4073 14.5377 17.7793 15.2569 17.054 15.8635C16.9509 17.3709 16.5551 19.4226 15.1693 19.8999L15.168 19.9003C15.1033 19.9215 14.514 20.114 13.8976 19.8999C13.1574 19.6441 12.6373 18.8921 12.4574 17.8755Z" fill="#383838"/>
<path d="M11.3059 13.6936C14.605 13.6936 17.2794 11.5808 17.2794 8.97447C17.2794 6.36818 14.605 4.25537 11.3059 4.25537C8.00691 4.25537 5.33252 6.36818 5.33252 8.97447C5.33252 11.5808 8.00691 13.6936 11.3059 13.6936Z" fill="white"/>
<path d="M8.74697 10.1702C9.46073 10.1702 10.0393 9.39561 10.0393 8.44008C10.0393 7.48456 9.46073 6.70996 8.74697 6.70996C8.03321 6.70996 7.45459 7.48456 7.45459 8.44008C7.45459 9.39561 8.03321 10.1702 8.74697 10.1702Z" fill="#383838"/>
<path d="M13.6464 10.1702C14.3601 10.1702 14.9388 9.39561 14.9388 8.44008C14.9388 7.48456 14.3601 6.70996 13.6464 6.70996C12.9326 6.70996 12.354 7.48456 12.354 8.44008C12.354 9.39561 12.9326 10.1702 13.6464 10.1702Z" fill="#383838"/>
</svg>

<svg width="97" height="20" fill="none" xmlns="http://www.w3.org/2000/svg"><path d="M27.575 14.754V5.25h3.079v6.87h6.659v2.637l-9.738-.003ZM49.556 5.25v5.353c0 1.118-.215 2.008-.644 2.67-.43.66-1.044 1.13-1.844 1.405-.8.275-1.799.412-2.998.412-1.2 0-2.199-.137-2.998-.412-.8-.276-1.415-.742-1.844-1.399-.43-.657-.645-1.549-.645-2.676V5.25h3.079v5.26c0 .683.207 1.175.62 1.477.415.303 1.011.454 1.79.454.772 0 1.367-.152 1.785-.454.418-.302.626-.794.625-1.477V5.25h3.074ZM64.724 14.754h-3.08V8.283h-.07l-2.437 6.47h-2.322l-2.47-6.55h-.084v6.55H51.35V5.25h4.725l1.874 5.34h.083l1.838-5.34h4.857l-.003 9.504ZM66.513 14.754V5.25h3.079v9.507l-3.079-.003ZM81.937 6.167c1.038.833 1.558 2.112 1.558 3.835 0 1.723-.52 3.001-1.558 3.834-1.038.834-2.579 1.25-4.622 1.25-2.037 0-3.575-.416-4.612-1.25-1.038-.833-1.558-2.111-1.56-3.834 0-1.722.52-3 1.558-3.835s2.575-1.251 4.612-1.25c2.045-.001 3.586.415 4.624 1.25Zm-2.524 5.692c.47-.43.704-1.05.704-1.857 0-.808-.234-1.427-.704-1.858-.469-.43-1.169-.646-2.1-.646s-1.63.216-2.094.646c-.466.431-.699 1.05-.699 1.858 0 .807.233 1.426.699 1.857.465.43 1.163.646 2.094.646.93 0 1.63-.215 2.1-.646ZM91.663 7.299c-.338-.167-.826-.25-1.462-.25-.652 0-1.117.068-1.396.206-.279.137-.418.34-.418.605a.5.5 0 0 0 .25.467c.166.097.453.168.859.213l3.472.32c1.05.097 1.84.376 2.37.838.528.462.793 1.159.793 2.09 0 .88-.213 1.559-.639 2.038-.425.48-1.05.81-1.874.992-.824.182-1.912.273-3.263.273-1.298 0-2.348-.098-3.151-.293-.803-.196-1.422-.546-1.856-1.052-.433-.506-.666-1.22-.698-2.144h3.585c.087.506.308.855.662 1.046.354.19.88.286 1.581.286.716 0 1.231-.073 1.546-.22.314-.147.471-.376.47-.688 0-.257-.09-.445-.274-.562-.182-.118-.457-.193-.823-.226l-3.342-.36c-1.058-.115-1.853-.386-2.386-.812-.532-.427-.799-1.106-.8-2.038 0-.792.213-1.415.639-1.87.426-.456 1.034-.778 1.826-.966.791-.187 1.783-.28 2.977-.28 1.185 0 2.172.096 2.96.286.787.191 1.401.522 1.843.992.442.47.675 1.114.698 1.931h-3.544a1.07 1.07 0 0 0-.605-.822Z" fill="#383838"/><path fill-rule="evenodd" clip-rule="evenodd" d="M12.457 17.875a9.041 9.041 0 0 1-2.311 0c-.18 1.017-.7 1.77-1.44 2.025-.617.214-1.206.022-1.27 0h-.002c-1.388-.478-1.783-2.536-1.886-4.044a9.02 9.02 0 0 1-1.853-2.131c-.04.17-.07.326-.099.469-.117.586-.19.948-.617 1.215-.638.399-1.441.199-1.484.188-.822-.218-1.182-.942-1.271-1.126-.875-1.764 1.085-3.92 1.271-4.12.285-.305.579-.555.863-.762a9.117 9.117 0 0 1-.02-.615C2.337 4.018 6.352 0 11.305 0s8.968 4.018 8.968 8.974c0 .21-.007.42-.021.626.279.205.567.451.846.751.195.2 2.156 2.356 1.28 4.12-.089.182-.45.907-1.271 1.126-.043.01-.846.21-1.484-.188-.425-.267-.497-.628-.614-1.212-.029-.14-.06-.295-.099-.464a9.019 9.019 0 0 1-1.857 2.13c-.103 1.508-.499 3.56-1.885 4.037h-.001c-.065.022-.654.214-1.27 0-.74-.256-1.26-1.008-1.44-2.024Z" fill="#383838"/><path d="M11.306 13.694c3.299 0 5.973-2.113 5.973-4.72 0-2.606-2.674-4.719-5.973-4.719-3.3 0-5.973 2.113-5.973 4.72 0 2.606 2.674 4.719 5.973 4.719Z" fill="#fff"/><path d="M8.747 10.17c.714 0 1.292-.774 1.292-1.73 0-.955-.578-1.73-1.292-1.73-.714 0-1.292.775-1.292 1.73 0 .956.578 1.73 1.292 1.73ZM13.646 10.17c.714 0 1.293-.774 1.293-1.73 0-.955-.579-1.73-1.293-1.73-.713 0-1.292.775-1.292 1.73 0 .956.579 1.73 1.292 1.73Z" fill="#383838"/></svg>
